Numix-GalliumOS/22/devices/drive-removable-media-usb.svg

<?xml version="1.0" encoding="UTF-8" standalone="no"?>
<svg
   xmlns:dc="http://purl.org/dc/elements/1.1/"
   xmlns:cc="http://creativecommons.org/ns#"
   xmlns:rdf="http://www.w3.org/1999/02/22-rdf-syntax-ns#"
   xmlns:svg="http://www.w3.org/2000/svg"
   xmlns="http://www.w3.org/2000/svg"
   xmlns:sodipodi="http://sodipodi.sourceforge.net/DTD/sodipodi-0.dtd"
   xmlns:inkscape="http://www.inkscape.org/namespaces/inkscape"
   width="22"
   height="22"
   viewBox="0 0 22 22"
   id="svg2"
   version="1.1"
   inkscape:version="0.91 r"
   sodipodi:docname="drive-removable-media-usb.svg">
  <metadata
     id="metadata10">
    <rdf:RDF>
      <cc:Work
         rdf:about="">
        <dc:format>image/svg+xml</dc:format>
        <dc:type
           rdf:resource="http://purl.org/dc/dcmitype/StillImage" />
        <dc:title></dc:title>
      </cc:Work>
    </rdf:RDF>
  </metadata>
  <defs
     id="defs8" />
  <sodipodi:namedview
     pagecolor="#ffffff"
     bordercolor="#666666"
     borderopacity="1"
     objecttolerance="10"
     gridtolerance="10"
     guidetolerance="10"
     inkscape:pageopacity="0"
     inkscape:pageshadow="2"
     inkscape:window-width="1920"
     inkscape:window-height="1056"
     id="namedview6"
     showgrid="true"
     inkscape:zoom="60.682618"
     inkscape:cx="11.678417"
     inkscape:cy="9.3273617"
     inkscape:window-x="0"
     inkscape:window-y="24"
     inkscape:window-maximized="1"
     inkscape:current-layer="svg2">
    <inkscape:grid
       type="xygrid"
       id="grid3004" />
  </sodipodi:namedview>
  <path
     style="fill:#dc4946;fill-opacity:1;stroke:none"
     d="m 11,19 c 4,0 4,-3.5 4,-3.5 L 15,8 C 15,7.446 14.554,7 14,7 L 8.0000002,7 C 7.4459998,7 6.9999998,7.446 6.9999998,8 l 0,7.5 c 0,0 -3.6e-6,3.5 4.0000002,3.5 z"
     id="rect2991"
     inkscape:connector-curvature="0"
     sodipodi:nodetypes="scsssscs" />
  <path
     style="opacity:0.39446369;fill:#ffffff;fill-opacity:1;stroke:none"
     d="M 13 7 L 13 18.607422 C 13.40957 18.420151 13.741269 18.181754 14 17.916016 L 14 7 L 13 7 z "
     id="rect3761" />
  <rect
     style="fill:#657b83;fill-opacity:1;stroke:none"
     id="rect3763"
     width="6"
     height="4.0000005"
     x="8.000001"
     y="-7.0000005"
     transform="scale(1,-1)"
     ry="0" />
  <rect
     style="opacity:0.31141872;fill:#ffffff;fill-opacity:1;stroke:none"
     id="rect3765"
     width="1"
     height="4.0000005"
     x="12"
     y="-7.0000005"
     transform="scale(1,-1)" />
  <rect
     style="fill:#002b36;fill-opacity:1;stroke:none"
     id="rect3767"
     width="1"
     height="2"
     x="9.000001"
     y="-6.0000005"
     transform="scale(1,-1)" />
  <rect
     style="fill:#002b36;fill-opacity:1;stroke:none"
     id="rect3769"
     width="1"
     height="2"
     x="12"
     y="-6.0000005"
     transform="scale(1,-1)" />
</svg>

<svg xmlns="http://www.w3.org/2000/svg" viewBox="0 0 22 22">
 <path d="m 11 19 c 4 0 4 -3.5 4 -3.5 l 0 -7.5 c 0 -0.554 -0.446 -1 -1 -1 l -6 0 c -0.554 0 -1 0.446 -1 1 l 0 7.5 c 0 0 0 3.5 4 3.5 z" style="fill:#dc4946;fill-opacity:1;stroke:none"/>
 <path d="m 13 7 l 0 11.607 c 0.41 -0.187 0.741 -0.426 1 -0.691 l 0 -10.916 l -1 0 z" style="fill:#fff;opacity:0.394;fill-opacity:1;stroke:none"/>
 <rect width="6" height="4" x="8" y="-7" transform="scale(1,-1)" rx="0" style="fill:#657b83;fill-opacity:1;stroke:none"/>
 <rect width="1" height="4" x="12" y="-7" transform="scale(1,-1)" style="fill:#fff;opacity:0.311;fill-opacity:1;stroke:none"/>
 <rect width="1" height="2" x="9" y="-6" transform="scale(1,-1)" style="fill:#002b36;fill-opacity:1;stroke:none"/>
 <rect width="1" height="2" x="12" y="-6" transform="scale(1,-1)" style="fill:#002b36;fill-opacity:1;stroke:none"/>
</svg>
